X:75
T:Broken Pledge
R:reel
D:Paul McGrattan & Paul O'Shaughnessy: Within a Mile of Dublin
M:C|
L:1/8
K:Edor
edBA BE~E2|dBAG FDDF|EFGA Beed|BdAd Begf|
edBA ~B3c|dBAG FDDF|EFGA Beed|BdAF FEE2:|
|:edBA (3Bcd ef|g2eg fdBc|dAFA ~d3e|f~d3 fbaf|
edBA (3Bcd ef|g2eg fdBA|~G3A Beed|BdAF FEE2:|
